src/svgs/instagram.svg

<svg width="50" height="50" viewBox="0 0 50 50" fill="none" xmlns="http://www.w3.org/2000/svg">
<path d="M36.4654 0H13.5345C6.07146 0 0 6.07146 0 13.5345V36.4658C0 43.9284 6.07146 49.9999 13.5345 49.9999H36.4658C43.9284 49.9999 49.9999 43.9284 49.9999 36.4658V13.5345C49.9999 6.07146 43.9284 0 36.4654 0V0ZM47.0687 36.4658C47.0687 42.3122 42.3122 47.0687 36.4654 47.0687H13.5345C7.68774 47.0687 2.93121 42.3122 2.93121 36.4658V13.5345C2.93121 7.68774 7.68774 2.93121 13.5345 2.93121H36.4658C42.3122 2.93121 47.0687 7.68774 47.0687 13.5345V36.4658Z" fill="#EE7D00"/>
<path d="M24.9996 11.3281C17.461 11.3281 11.3281 17.461 11.3281 24.9996C11.3281 32.5382 17.461 38.6711 24.9996 38.6711C32.5382 38.6711 38.6711 32.5382 38.6711 24.9996C38.6711 17.461 32.5382 11.3281 24.9996 11.3281ZM24.9996 35.7399C19.0777 35.7399 14.2593 30.9219 14.2593 24.9996C14.2593 19.0777 19.0777 14.2593 24.9996 14.2593C30.9219 14.2593 35.7399 19.0777 35.7399 24.9996C35.7399 30.9219 30.9219 35.7399 24.9996 35.7399Z" fill="#EE7D00"/>
<path d="M38.9987 6.47363C36.771 6.47363 34.959 8.28599 34.959 10.5134C34.959 12.7412 36.771 14.5535 38.9987 14.5535C41.2265 14.5535 43.0389 12.7412 43.0389 10.5134C43.0389 8.28561 41.2265 6.47363 38.9987 6.47363ZM38.9987 11.6219C38.3876 11.6219 37.8902 11.1245 37.8902 10.5134C37.8902 9.90189 38.3876 9.40484 38.9987 9.40484C39.6102 9.40484 40.1077 9.90189 40.1077 10.5134C40.1077 11.1245 39.6102 11.6219 38.9987 11.6219Z" fill="#EE7D00"/>
</svg>

<svg width="50" height="50" fill="none" xmlns="http://www.w3.org/2000/svg"><path d="M36.465 0h-22.93C6.07 0 0 6.071 0 13.534v22.932C0 43.928 6.071 50 13.534 50h22.932C43.928 50 50 43.928 50 36.466V13.535C50 6.07 43.928 0 36.465 0ZM47.07 36.466c0 5.846-4.757 10.603-10.604 10.603h-22.93c-5.847 0-10.604-4.757-10.604-10.603V13.535c0-5.847 4.757-10.604 10.604-10.604h22.93c5.847 0 10.604 4.757 10.604 10.604v22.93Z" fill="#EE7D00"/><path d="M25 11.328c-7.539 0-13.672 6.133-13.672 13.672 0 7.538 6.133 13.671 13.672 13.671 7.538 0 13.671-6.133 13.671-13.671 0-7.539-6.133-13.672-13.671-13.672Zm0 24.412c-5.922 0-10.74-4.818-10.74-10.74 0-5.922 4.818-10.74 10.74-10.74 5.922 0 10.74 4.818 10.74 10.74 0 5.922-4.818 10.74-10.74 10.74ZM38.999 6.474a4.044 4.044 0 0 0-4.04 4.04 4.044 4.044 0 0 0 4.04 4.04 4.045 4.045 0 0 0 4.04-4.04 4.044 4.044 0 0 0-4.04-4.04Zm0 5.148a1.11 1.11 0 1 1 1.109-1.108 1.11 1.11 0 0 1-1.11 1.108Z" fill="#EE7D00"/></svg>
